X:498
T: WIE KUMM ICH DENN DIE POORTS HERIN
N: E0460A
O: Europa, Mitteleuropa, Deutschland, Koeln ?
R: Liebes - Lied
M: 2/4
L: 1/16
K: E
B,2 | E2D2E2F2 | =G3FE2
G2 | F2B,2^B,2D2 | E4z4 |
E2B2B2B2 | A2=G2F2
F2 | =G2E2E2E2 | F2B,2B,2
B,2 | E2=G2F2E2 | D2B2B2
A2 | =G2G2F2F2 | E4z2

@@@ Tune index: 4148
